docs/images/icons/cursor_you.svg

<svg width="68" height="39" viewBox="0 0 68 39" fill="none" xmlns="http://www.w3.org/2000/svg">
<rect x="24.5" y="12.5" width="43" height="26" rx="13" fill="#31B970"/>
<rect x="24.5" y="12.5" width="43" height="26" rx="13" stroke="#64D598"/>
<path d="M37.9541 30V25.96L34.4814 20.1357H36.1904L38.7061 24.4902H38.7539L41.2695 20.1357H42.9648L39.4854 25.96V30H37.9541ZM45.7607 30.0889C44.6852 30.0889 43.8307 29.7471 43.1973 29.0635C42.5638 28.3799 42.2471 27.4548 42.2471 26.2881C42.2471 25.126 42.5661 24.2008 43.2041 23.5127C43.8376 22.8245 44.6898 22.4805 45.7607 22.4805C46.8317 22.4805 47.6839 22.8223 48.3174 23.5059C48.9508 24.194 49.2676 25.1214 49.2676 26.2881C49.2676 27.4548 48.9508 28.3799 48.3174 29.0635C47.6885 29.7471 46.8363 30.0889 45.7607 30.0889ZM45.7607 28.8584C46.3896 28.8584 46.8818 28.6328 47.2373 28.1816C47.5882 27.7305 47.7637 27.0993 47.7637 26.2881C47.7637 25.4769 47.5882 24.8457 47.2373 24.3945C46.8818 23.9388 46.3896 23.7109 45.7607 23.7109C45.1318 23.7109 44.6396 23.9388 44.2842 24.3945C43.9287 24.8503 43.751 25.4814 43.751 26.2881C43.751 27.0947 43.9287 27.7259 44.2842 28.1816C44.6396 28.6328 45.1318 28.8584 45.7607 28.8584ZM56.9238 30H55.5088V28.7285H55.4814C55.0394 29.6309 54.2396 30.082 53.082 30.082C52.2708 30.082 51.626 29.8359 51.1475 29.3438C50.6644 28.8516 50.4229 28.1816 50.4229 27.334V22.5762H51.9062V27.0537C51.9062 27.6234 52.0521 28.0586 52.3438 28.3594C52.6354 28.6556 53.0501 28.8037 53.5879 28.8037C54.1439 28.8037 54.5905 28.626 54.9277 28.2705C55.2695 27.915 55.4404 27.4434 55.4404 26.8555V22.5762H56.9238V30Z" fill="white"/>
<path d="M2.74084 2.774L2.74187 2.77435L21.5469 9.04235L21.5477 9.04261L21.5473 9.04276L12.8143 12.5358L12.6378 12.6064L12.5528 12.7764L8.12777 21.6264L8.12771 21.6265L2.74084 2.774Z" fill="#31B970" stroke="#64D598"/>
</svg>

<svg width="68" height="39" fill="none" xmlns="http://www.w3.org/2000/svg"><rect x="24.5" y="12.5" width="43" height="26" rx="13" fill="#31B970"/><rect x="24.5" y="12.5" width="43" height="26" rx="13" stroke="#64D598"/><path d="M37.954 30v-4.04l-3.473-5.824h1.71l2.515 4.354h.048l2.516-4.354h1.695l-3.48 5.824V30h-1.53Zm7.807.089c-1.076 0-1.93-.342-2.564-1.025-.633-.684-.95-1.61-.95-2.776 0-1.162.32-2.087.957-2.775.634-.689 1.486-1.033 2.557-1.033 1.07 0 1.923.342 2.556 1.026.634.688.95 1.615.95 2.782s-.316 2.092-.95 2.776c-.629.683-1.48 1.025-2.556 1.025Zm0-1.23c.629 0 1.12-.226 1.476-.677.351-.451.527-1.083.527-1.894 0-.811-.176-1.442-.527-1.893-.355-.456-.847-.684-1.476-.684-.63 0-1.121.228-1.477.684-.355.455-.533 1.086-.533 1.893 0 .807.178 1.438.533 1.894.356.45.848.676 1.477.676ZM56.924 30h-1.415v-1.271h-.028c-.442.902-1.241 1.353-2.399 1.353-.811 0-1.456-.246-1.934-.738-.484-.492-.725-1.162-.725-2.01v-4.758h1.483v4.478c0 .57.146 1.005.438 1.305.291.297.706.445 1.244.445.556 0 1.002-.178 1.34-.534.342-.355.512-.827.512-1.415v-4.279h1.484V30Z" fill="#fff"/><path d="M2.74 2.774h.002l18.805 6.268-8.733 3.494-.176.07-.085.17-4.425 8.85L2.74 2.774Z" fill="#31B970" stroke="#64D598"/></svg>
